!!!OTL: 181. Landleben.
!!!ODT: 1835
!!!ARE: Europa, Mitteleuropa, Deutschland
!!!SCT: B0181
!!!TXL: @@DE
!!!YEM: Copyright 1995, estate of Helmut Schaffrath.
**kern	**text
*ICvox	*
*Ivox	*
*clefG2	*
*M3/4	*
*k[]	*
*C:	*
!LO:TX:a:t=Friſch.	!
{4ee	Da [Auf]
=1	=1
4.ff	drau-[Ber-]
8a	-ßen[-gen]
4b	da
=2	=2
4cc	we-
4e}	-hen
{4g	die
=3	=3
4f	Win-
4d	-de
4a	ſo
=4	=4
(4a	friſch,
4g)	.
8r}	.
{8ee	in
=5	=5
4.ff	un-
8a	-ſe-
4b	-ren
=6	=6
4cc	See-
4e}	-en
{4g	ſind
=7	=7
4f	gol-
4d	-de-
4f	-ne
=8	=8
4e	Fiſch.
4r}	.
=||	=||
{4ee^	Da
=9	=9
4.dd	pfei-
8cc	-fen
4cc	und
=10	=10
4b	ſin-
4dd}	-gen
{4dd	die
=11	=11
4a	Vö-
4cc	-gel
4cc	ſo
=12	=12
(8bL	hell,
8eeJ	.
4dd)}	.
{4ee^	und
=13	=13
4.dd	tan-
8cc	-ʒen
4cc	und
=14	=14
4b	ſprin-
4dd}	-gen
{4dd	die
=15	=15
4a	Waſ-
4dd	-ſer
4dd	ſo
=16	=16
4b	ſchnell.
4r}	.
=||	=||
{4ee	Drum
=17	=17
8ffL	ſind
8eeJ	.
4dd	wir
8aL	ſo
8bJ	.
=18	=18
4.cc	fröh-
8e}	-lich
{4g	und
=19	=19
4f	ſin-
4d	-gen
4a	ſo
=20	=20
(4a	gern
4g)}	.
{4ee	ein
=21	=21
8ffL	Lied-
8eeJ	.
4dd	-lein
8aL	ſo
8bJ	.
=22	=22
4.cc	ſe-
8e}	-lig
{4g	ʒum
=23	=23
4f	Lo-
4d	-be
4b	des
=24	=24
4cc	Herrn.
4r}	.
==	==
!!!AGN: Natur - Lied, Landleben
!!!GTL: Naturfreude, Waldlust, Landleben, Berg- und Wasserfahrt
!!!ONB: ESAC (Essen Associative Code) Database: BOEHME
!!!AMT: simple triple
!!!AIN: vox
!!!EED: Helmut Schaffrath
!!!EEV: 1.0
!!@@COMMENT:"Text und Mel. in "Feſtkalender in Bildern und Liedern". Herausgegeben von Fr. Pocci und
!!Guido Görres, München, 1835-34 (18 Hefte).[...] Die hübſche Mel. ſehr wahrſcheinlich von ſeiner muſi-
!!kaliſchen Schweſter Maria, die auch geiſtliche Lieder (1845) und friſche Kinderlieder (1849) von
!!Görres in Muſik ſetʒte und herausgab."
!!@@END:
!!!URL-scan: https://archive.org/details/BoehmeVtLieder1895/page/n175/mode/2up
!!!ENC: Anna Maria Matuszewska
!!!EEV: 2024/21/06
*-	*-
